img/logo-text.svg

<svg width="113" height="19" viewBox="0 0 113 19" fill="none" xmlns="http://www.w3.org/2000/svg">
<path d="M7.26583 1.24984V3.36496L5.38612 3.72549V12.8589C5.38612 14.0126 5.69539 14.8779 6.31393 15.4548C6.9405 16.0236 7.79601 16.308 8.88047 16.308C9.98098 16.308 10.8445 16.0236 11.4711 15.4548C12.0977 14.8859 12.411 14.0207 12.411 12.8589V3.72549L10.5433 3.36496V1.24984H17.8091V3.36496L15.9294 3.72549V12.8589C15.9294 14.8218 15.2787 16.3361 13.9774 17.4016C12.6841 18.4672 10.9851 19 8.88047 19C6.78386 19 5.0889 18.4672 3.79559 17.4016C2.51031 16.3361 1.86767 14.8218 1.86767 12.8589V3.72549L0 3.36496V1.24984H7.26583Z" fill="white"/>
<path d="M18.749 16.6445L20.4359 16.284V8.22011L18.5682 7.85958V5.74447H23.7134L23.87 7.60721C24.3038 6.94223 24.838 6.42547 25.4726 6.05693C26.1072 5.68838 26.8181 5.50411 27.6054 5.50411C28.9228 5.50411 29.951 5.91672 30.69 6.74194C31.4291 7.56715 31.7986 8.86106 31.7986 10.6237V16.284L33.4855 16.6445V18.7476H26.7619V16.6445L28.2681 16.284V10.6357C28.2681 9.76239 28.0913 9.14548 27.7379 8.78495C27.3844 8.4164 26.8503 8.23213 26.1353 8.23213C25.6694 8.23213 25.2517 8.32827 24.8822 8.52056C24.5127 8.70483 24.2034 8.96922 23.9544 9.31373V16.284L25.3762 16.6445V18.7476H18.749V16.6445Z" fill="white"/>
<path d="M34.4977 16.6445L36.1966 16.284V8.22011L34.3169 7.85958V5.74447H39.7151V16.284L41.402 16.6445V18.7476H34.4977V16.6445ZM39.7151 2.63188H36.1966V0H39.7151V2.63188Z" fill="white"/>
<path d="M48.0895 7.85958L46.8604 8.08792L48.5835 13.9045L48.8124 15.1303H48.8847L49.1378 13.9045L50.8367 8.09994L49.5836 7.85958V5.74447H55.4999V7.85958L54.3672 8.03985L50.5235 18.7476H47.1617L43.3058 8.03985L42.1732 7.85958V5.74447H48.0895V7.85958Z" fill="white"/>
<path d="M62.7055 19C60.8258 19 59.3236 18.3991 58.199 17.1973C57.0744 15.9956 56.5121 14.4693 56.5121 12.6186V12.1379C56.5121 10.207 57.0422 8.6167 58.1026 7.36686C59.171 6.11701 60.6008 5.4961 62.3922 5.50411C64.1514 5.50411 65.517 6.03289 66.489 7.09045C67.461 8.14801 67.947 9.57812 67.947 11.3808V13.2916H60.163L60.1389 13.3637C60.2032 14.221 60.4884 14.926 60.9945 15.4788C61.5086 16.0316 62.2034 16.308 63.079 16.308C63.8582 16.308 64.5049 16.2319 65.019 16.0797C65.5331 15.9195 66.0954 15.6711 66.7059 15.3346L67.6578 17.4978C67.1196 17.9224 66.4207 18.2789 65.5612 18.5674C64.7097 18.8558 63.7578 19 62.7055 19ZM62.3922 8.2081C61.7415 8.2081 61.2274 8.45646 60.8499 8.95319C60.4723 9.44993 60.2394 10.1029 60.151 10.9121L60.1871 10.9722H64.5009V10.6597C64.5009 9.91461 64.3241 9.32174 63.9707 8.88109C63.6253 8.43243 63.0991 8.2081 62.3922 8.2081Z" fill="white"/>
<path d="M69.887 16.6445L71.5739 16.284V8.22011L69.7062 7.85958V5.74447H74.8514L75.008 7.64326C75.3132 6.97027 75.7069 6.4455 76.1889 6.06894C76.6708 5.69239 77.2291 5.50411 77.8637 5.50411C78.0485 5.50411 78.2413 5.52013 78.4421 5.55218C78.651 5.57622 78.8237 5.60826 78.9602 5.64832L78.5867 8.84503L77.1408 8.80898C76.6266 8.80898 76.2009 8.90913 75.8635 9.10942C75.5261 9.30972 75.2691 9.59414 75.0923 9.96268V16.284L76.7793 16.6445V18.7476H69.887V16.6445Z" fill="white"/>
<path d="M90.6482 10.2151H88.2865L87.913 8.59266C87.672 8.40038 87.3667 8.24014 86.9972 8.11195C86.6357 7.98377 86.2341 7.91967 85.7923 7.91967C85.1737 7.91967 84.6837 8.05988 84.3222 8.34029C83.9608 8.61269 83.78 8.9572 83.78 9.37381C83.78 9.76639 83.9527 10.0949 84.2981 10.3593C84.6436 10.6156 85.3344 10.844 86.3707 11.0443C87.9853 11.3647 89.1822 11.8374 89.9614 12.4624C90.7406 13.0793 91.1302 13.9325 91.1302 15.0221C91.1302 16.1919 90.6241 17.1493 89.612 17.8944C88.6078 18.6315 87.2824 19 85.6356 19C84.6315 19 83.7077 18.8558 82.8643 18.5674C82.0288 18.2709 81.2858 17.8503 80.6351 17.3055L80.599 14.3852H83.0571L83.539 16.0797C83.7479 16.256 84.0331 16.3882 84.3945 16.4763C84.756 16.5564 85.1336 16.5965 85.5272 16.5965C86.2421 16.5965 86.7844 16.4683 87.1539 16.2119C87.5314 15.9555 87.7202 15.607 87.7202 15.1664C87.7202 14.7818 87.5314 14.4493 87.1539 14.1689C86.7763 13.8885 86.0815 13.6401 85.0693 13.4238C83.535 13.1113 82.3742 12.6506 81.587 12.0417C80.8078 11.4248 80.4182 10.5876 80.4182 9.53004C80.4182 8.44044 80.8681 7.50306 81.7678 6.7179C82.6674 5.92473 83.9487 5.52815 85.6115 5.52815C86.6237 5.52815 87.5796 5.66435 88.4793 5.93675C89.387 6.20915 90.098 6.55766 90.6121 6.98229L90.6482 10.2151Z" fill="white"/>
<path d="M101.011 18.7476C100.914 18.5313 100.83 18.311 100.758 18.0867C100.685 17.8543 100.629 17.622 100.589 17.3896C100.171 17.8703 99.6612 18.2589 99.0588 18.5553C98.4643 18.8518 97.7815 19 97.0103 19C95.7331 19 94.7169 18.6555 93.9618 17.9665C93.2148 17.2694 92.8412 16.3241 92.8412 15.1303C92.8412 13.9125 93.3312 12.9711 94.3113 12.3061C95.2913 11.6412 96.7292 11.3087 98.625 11.3087H100.42V10.0348C100.42 9.40987 100.24 8.92515 99.8781 8.58064C99.5166 8.23614 98.9824 8.06388 98.2755 8.06388C97.8739 8.06388 97.5164 8.11195 97.2031 8.2081C96.8898 8.29623 96.6368 8.40438 96.444 8.53257L96.2151 9.92663H93.5642L93.5762 7.04238C94.2189 6.60974 94.9539 6.2452 95.7813 5.94877C96.6167 5.65233 97.5245 5.50411 98.5045 5.50411C100.119 5.50411 101.428 5.9007 102.433 6.69386C103.445 7.47902 103.951 8.60067 103.951 10.0588V15.4307C103.951 15.631 103.951 15.8193 103.951 15.9956C103.959 16.1718 103.975 16.3401 103.999 16.5003L105.071 16.6445V18.7476H101.011ZM97.9622 16.4042C98.4924 16.4042 98.9744 16.292 99.4082 16.0677C99.842 15.8353 100.179 15.5469 100.42 15.2024V13.2195H98.625C97.8779 13.2195 97.3116 13.3957 96.926 13.7483C96.5404 14.0928 96.3476 14.5094 96.3476 14.9981C96.3476 15.4388 96.4882 15.7833 96.7694 16.0316C97.0585 16.28 97.4562 16.4042 97.9622 16.4042Z" fill="white"/>
<path d="M105.903 2.11512V0H111.301V16.284L113 16.6445V18.7476H106.084V16.6445L107.783 16.284V2.47565L105.903 2.11512Z" fill="white"/>
</svg>

<svg width="113" height="19" fill="none" xmlns="http://www.w3.org/2000/svg"><path d="M7.266 1.25v2.115l-1.88.36v9.134c0 1.154.31 2.019.928 2.596.627.569 1.482.853 2.566.853 1.101 0 1.964-.284 2.591-.853.627-.57.94-1.434.94-2.596V3.725l-1.868-.36V1.25h7.266v2.115l-1.88.36v9.134c0 1.963-.65 3.477-1.952 4.543C12.684 18.467 10.985 19 8.88 19c-2.096 0-3.791-.533-5.084-1.598-1.286-1.066-1.928-2.58-1.928-4.543V3.725L0 3.365V1.25h7.266ZM18.749 16.645l1.687-.361V8.22l-1.868-.36V5.744h5.145l.157 1.863a4.763 4.763 0 0 1 1.603-1.55c.634-.369 1.345-.553 2.132-.553 1.318 0 2.346.413 3.085 1.238.74.825 1.109 2.12 1.109 3.882v5.66l1.687.36v2.104h-6.724v-2.104l1.506-.36v-5.648c0-.874-.177-1.49-.53-1.851-.354-.369-.888-.553-1.603-.553-.466 0-.883.096-1.253.289a2.52 2.52 0 0 0-.928.793v6.97l1.422.36v2.104H18.75v-2.104ZM34.498 16.645l1.699-.361V8.22l-1.88-.36V5.744h5.398v10.54l1.687.36v2.104h-6.904v-2.104Zm5.217-14.013h-3.518V0h3.518v2.632ZM48.09 7.86l-1.23.228 1.724 5.817.228 1.225h.073l.253-1.226L50.837 8.1l-1.253-.24V5.744H55.5V7.86l-1.133.18-3.843 10.708h-3.362L43.306 8.04l-1.133-.18V5.744h5.916V7.86ZM62.706 19c-1.88 0-3.382-.6-4.507-1.803-1.125-1.201-1.687-2.728-1.687-4.578v-.481c0-1.931.53-3.521 1.59-4.771 1.069-1.25 2.499-1.87 4.29-1.863 1.76 0 3.125.529 4.097 1.586.972 1.058 1.458 2.488 1.458 4.29v1.912h-7.784l-.024.072c.064.857.35 1.562.855 2.115.515.553 1.21.829 2.085.829.78 0 1.426-.076 1.94-.228a9.252 9.252 0 0 0 1.687-.745l.952 2.163c-.538.424-1.237.78-2.097 1.07-.851.288-1.803.432-2.856.432Zm-.314-10.792c-.65 0-1.165.248-1.542.745-.378.497-.61 1.15-.699 1.96l.036.06h4.314v-.313c0-.745-.177-1.338-.53-1.779-.346-.449-.872-.673-1.579-.673ZM69.887 16.645l1.687-.361V8.22l-1.868-.36V5.744h5.145l.157 1.9c.305-.674.699-1.199 1.18-1.575a2.643 2.643 0 0 1 1.676-.565c.184 0 .377.016.578.048.209.024.382.056.518.096l-.373 3.197-1.446-.036c-.514 0-.94.1-1.278.3-.337.2-.594.485-.77.854v6.321l1.686.36v2.104h-6.892v-2.104ZM90.648 10.215h-2.361l-.374-1.622a3.072 3.072 0 0 0-.916-.481 3.586 3.586 0 0 0-1.205-.192c-.618 0-1.108.14-1.47.42-.361.273-.542.617-.542 1.034 0 .392.173.72.518.985.346.257 1.036.485 2.073.685 1.614.32 2.811.793 3.59 1.418.78.617 1.17 1.47 1.17 2.56 0 1.17-.507 2.127-1.519 2.872-1.004.738-2.33 1.106-3.976 1.106-1.004 0-1.928-.144-2.772-.433a7.179 7.179 0 0 1-2.229-1.262l-.036-2.92h2.458l.482 1.695c.209.176.494.308.855.396.362.08.74.12 1.133.12.715 0 1.257-.128 1.627-.384.377-.256.566-.605.566-1.046 0-.384-.189-.717-.566-.997-.378-.28-1.072-.529-2.085-.745-1.534-.313-2.695-.773-3.482-1.382-.78-.617-1.169-1.454-1.169-2.512 0-1.09.45-2.027 1.35-2.812.9-.793 2.18-1.19 3.844-1.19 1.012 0 1.968.136 2.867.409.908.272 1.619.62 2.133 1.045l.036 3.233ZM101.011 18.748a6.374 6.374 0 0 1-.253-.661 5.353 5.353 0 0 1-.169-.697c-.418.48-.928.869-1.53 1.165-.595.297-1.278.445-2.049.445-1.277 0-2.293-.345-3.048-1.034-.747-.697-1.12-1.642-1.12-2.836 0-1.218.49-2.159 1.47-2.824s2.417-.997 4.313-.997h1.795v-1.274c0-.625-.18-1.11-.542-1.454-.361-.345-.896-.517-1.603-.517-.401 0-.759.048-1.072.144a2.694 2.694 0 0 0-.759.325l-.229 1.394h-2.65l.011-2.885a9.923 9.923 0 0 1 2.205-1.093 8.088 8.088 0 0 1 2.723-.445c1.615 0 2.924.397 3.929 1.19 1.012.785 1.518 1.907 1.518 3.365V15.996c.008.176.024.344.048.504l1.072.145v2.103h-4.06Zm-3.049-2.344c.53 0 1.012-.112 1.446-.336.434-.233.771-.521 1.012-.866V13.22h-1.795c-.747 0-1.313.176-1.699.528-.386.345-.578.761-.578 1.25 0 .44.14.785.421 1.034.29.248.687.372 1.193.372ZM105.903 2.115V0h5.398v16.284l1.699.36v2.104h-6.916v-2.104l1.699-.36V2.476l-1.88-.36Z" fill="#fff"/></svg>
